!!!COM: Music21
!!!OTL: mazurka_Djarven
!!!OMV: mazurka_Djarven
**kern
*clefG2
*k[b-e-]
*g:
*M3/4
=1
8d
=
8gL
16gL
16f#XJJ
8dL
8dJ
8fnL
8gJ
=
8aL
16b-L
16aJJ
8gL
16f#XL
16gJJ
16aLL
16b-
16a
16fnJJ
=
8gL
8aJ
8b-L
16ddL
16b-JJ
16aLL
16b-
16a
16f#XJJ
=
8gL
16f#XL
16gJJ
16aLL
16b-
16a
16fnJJ
4d
!!linebreak:original
=
8gL
16gL
16f#XJJ
8dL
8dJ
8fnL
8gJ
=
8aL
16b-L
16aJJ
8gL
16f#XL
16gJJ
16aLL
16b-
16a
16fnJJ
=
8gL
8aJ
8b-L
16ddL
16b-JJ
16aLL
16b-
16a
16f#XJJ
=
16dLL
16f#XJJ
16aLL
16fnJJ
[4g
8g]
8ryy
=||
*M3/4
8d
!!linebreak:original
=
8gL
16gL
16f#XJJ
8dL
8dJ
8fnL
8gJ
=
8aL
16b-L
16aJJ
8gL
16f#XL
16gJJ
16aLL
16b-
16a
16fnJJ
=
8gL
8aJ
8b-L
16ddL
16b-JJ
16aLL
16b-
16a
16f#XJJ
=
8gL
16f#XL
16gJJ
16aLL
16b-
16a
16fnJJ
4d
!!linebreak:original
=
8gL
16gL
16f#XJJ
8dL
8dJ
8fnL
8gJ
=
8aL
16b-L
16aJJ
8gL
16f#XL
16gJJ
16aLL
16b-
16a
16fnJJ
=
8gL
8aJ
8b-L
16ddL
16b-JJ
16aLL
16b-
16a
16f#XJJ
=
16dLL
16f#XJJ
16aLL
16fnJJ
[4g
8g]
8ryy
=||
[8dd
2ryy
8ryy
!!linebreak:original
=
8ddL]
[8b-J
8b-L]
[8ddJ
8ddL]
16ee-L
16ddJJ
=
16ccLL
16dd
16cc
16aJJ
16f#XLL
16d
16fn
16aJJ
8ccL
16ddL
16ccJJ
=
16b-LL
16cc
16b-
16aJJ
16gLL
16f#X
16g
16aJJ
16b-LL
16a
16b-
16ccJJ
=
16aLL
16b-
16a
16f#XJJ
16dLL
16fn
16a
16fJJ
4d
!!linebreak:original
=
8ddL
[8b-J
8b-L]
[8ddJ
8ddL]
16ee-L
16ddJJ
=
16ccLL
16dd
16cc
16aJJ
16f#XLL
16d
16fn
16aJJ
8ccL
16ddL
16ccJJ
=
16b-LL
16cc
16b-
16aJJ
16gLL
16f#X
16g
16aJJ
16b-LL
16a
16b-
16ccJJ
=
16dLL
16f#XJJ
16aLL
16fnJJ
[4g
8g]
8ryy
=||
[8dd
2ryy
8ryy
!!linebreak:original
=
8ddL]
[8b-J
8b-L]
[8ddJ
8ddL]
16ee-L
16ddJJ
=
16ccLL
16dd
16cc
16aJJ
16f#XLL
16d
16fn
16aJJ
8ccL
16ddL
16ccJJ
=
16b-LL
16cc
16b-
16aJJ
16gLL
16f#X
16g
16aJJ
16b-LL
16a
16b-
16ccJJ
=
16aLL
16b-
16a
16f#XJJ
16dLL
16fn
16a
16fJJ
4d
!!linebreak:original
=
8ddL
[8b-J
8b-L]
[8ddJ
8ddL]
16ee-L
16ddJJ
=
16ccLL
16dd
16cc
16aJJ
16f#XLL
16d
16fn
16aJJ
8ccL
16ddL
16ccJJ
=
16b-LL
16cc
16b-
16aJJ
16gLL
16f#X
16g
16aJJ
16b-LL
16a
16b-
16ccJJ
=
16dLL
16f#XJJ
16aLL
16fnJJ
[4g
8g]
8ryy
=||
*-
